X:1
T:Ross' -- Reel
R:reel
C:ZEKE BACKUS.
N:317
B:Ryan's Mammoth Collection
Z:Contributed by Ray Davies,  ray:davies99.freeserve.co.uk
M:2/4
L:1/16
K:E
vBuG|\
vE2vGuB egfe | defg va2vgua | bgaf gefd | Bagf ecBA |
GEGB egfe | defg va2vgua | bgaf gefd | Bagf e2:|
|:vdue|\
fBv((3B^AB) ugB u((3BAB) | vbBgB fB v((3B^AB) | eufga bgaf |\
 gefd BcBA |
GEGB egfe | defg va2vgua | bgaf gefd | Bagf e2:|
